X: 24060
T: Lonesome Boatman, The
R: reel
M: 4/4
K: Eminor
e^d|:e4- e=fe=d|e A3- A2 E/G/A|c6 BA|GE- E6-|E4- Ee2^d|
e4- e=fe=d|e A3- AE/G/ A/B/c|c6 e/d/c|B4- BE2G|1 A8-|A6 e^d:|2 A8-|A6 e2||
f8-|f4- fe2^d|e8-|e6 e2|f8-|f4- fe2^d|e8-|e3e edcB|
cc2c- cdc2|B4 c3B|AE6-|E4-Ee2^d|
e4- e=fe=d|e A3- AE/G/ A/B/c|c6 e/d/c|B4- BE2G|A8-|A6||

